!!!COM: Josephine Lang
!!!CNT: Deutsch
!!!TXO: Deutsch
!!!OTL: "Leb'wohl, leb'wohl due scho2ne Welt"
!!!LYR: Zeller
!!!OPS: Op. 29
!!!ONM: No. 1
!!!ENC: Alyona Dzerbina, phrasing by LVH
!!!YOR: Josephine Lang: Selected Songs
!!!YOR: Da Capo Press, 1982
!!!ODT: 1862/
!!NB: Vocal melody only encoded.
**kern
*staff1
*clefG2
*k[]
*met(C)
*M4/4
*MM[Allegretto]
4r
=1
1r
=2
1r
=3
1r
=4
1r
=5
1r
=6
2r
4r
{8a
8b
=7!|:
(4e
8c)
8d
4.e
8f
=8
(4g
8.a)
16b
4cc
4b
=9
4e
8r
8e
4f#
4g#
=10
2a}
4r
{8a
8b
=11
(4e
8c)
8d
4e
8r
8f
=12
(4g
8a)
8b
4cc
4b
=13
4e
8r
8e
4cc
4g#
=14
2a}
4r
{4a
=15
4.b
8b
4a
4b
=16
4.cc
8dd
4ee
4ee
=17
(4ee
8dd)
8cc
4b
4a
=18
4g#
2b}
{8e
8f
=19
4.g
8g
4a
4b
=20
4.cc
8dd
4ee
4ee
=21
(4ee
8dd)
8cc
8b
8a
8g#
8a
=22
4b
[2.ee
=23
2.ee]}
4r
=24
2r
4r
{4d#
=25
4e
4d#
(4e
8.g#)
16f
=26
2.e}
{4e
=27
*k[f#c#g#]
4.e
8e
4f#
4g#
=28
4.a
8b
4cc#
8r
8cc#
=29
4.ee
8dd
4cc#
4b
=30
2.ee}
8r
{8e
=31
4.e
8e
4f#
4g#
=32
4.a
8b
4cc#
8r
8cc#
=33
4.ee
8dd
4dd
8r
8cc#
=34
(2cc#
4b)}
{4cc#
=35
4.ee
8dd
4dd
4ccn
=36
(2ccn
4b)}
8r
{8b
=37
(2b
4gg#
8ff#
8ee
=38
[2aa
8aa]
8ff#
8ee
8dd)
=39
(2cc#
4.b)
8a
=40
2a}
2r
=41
*k[]
1r
=42
1r
=43
1r
=44
1r
=45
1r
=46
1r
==
*-
